svg/filled/mnemonic.svg

<svg width="24" height="24" viewBox="0 0 24 24" fill="none" xmlns="http://www.w3.org/2000/svg">
<path fill-rule="evenodd" clip-rule="evenodd" d="M5.00004 6.5C5.00004 5.67157 5.67161 5 6.50004 5H17.5C18.3285 5 19 5.67157 19 6.5V17.5C19 18.3284 18.3285 19 17.5 19H6.50004C5.67162 19 5.00004 18.3284 5.00004 17.5V6.5ZM6.50004 6.5H9.00004V8H6.50004V6.5ZM9.00004 9.66667H6.50004V11.1667H9.00004V9.66667ZM6.50004 12.8333H9.00004V14.3333H6.50004V12.8333ZM9.00004 16H6.50004V17.5H9.00004V16ZM10.7501 6.5H13.2501V8H10.7501V6.5ZM13.25 9.66667H10.75V11.1667H13.25V9.66667ZM10.75 12.8333H13.25V14.3333H10.75V12.8333ZM13.25 16H10.75V17.5H13.25V16ZM15 6.5H17.5V8H15V6.5ZM17.5 9.66667H15V11.1667H17.5V9.66667ZM15 12.8333H17.5V14.3333H15V12.8333ZM17.5 16H15V17.5H17.5V16Z" fill="black"/>
</svg>

<svg xmlns="http://www.w3.org/2000/svg" viewBox="0 0 24 24" fill="currentColor">
  <path fill-rule="evenodd" d="M5 6.5A1.5 1.5 0 016.5 5h11A1.5 1.5 0 0119 6.5v11a1.5 1.5 0 01-1.5 1.5h-11A1.5 1.5 0 015 17.5v-11zm1.5 0H9V8H6.5V6.5zM9 9.667H6.5v1.5H9v-1.5zm-2.5 3.166H9v1.5H6.5v-1.5zM9 16H6.5v1.5H9V16zm1.75-9.5h2.5V8h-2.5V6.5zm2.5 3.167h-2.5v1.5h2.5v-1.5zm-2.5 3.166h2.5v1.5h-2.5v-1.5zM13.25 16h-2.5v1.5h2.5V16zM15 6.5h2.5V8H15V6.5zm2.5 3.167H15v1.5h2.5v-1.5zM15 12.833h2.5v1.5H15v-1.5zM17.5 16H15v1.5h2.5V16z" clip-rule="evenodd"/>
</svg>
